src/assets/icons/queen-white.svg

<?xml version="1.0" encoding="iso-8859-1"?>
<!-- Generator: Adobe Illustrator 19.0.0, SVG Export Plug-In . SVG Version: 6.00 Build 0)  -->
<svg version="1.1" id="Capa_1" xmlns="http://www.w3.org/2000/svg" xmlns:xlink="http://www.w3.org/1999/xlink" x="0px" y="0px"
	 viewBox="0 0 512 512" style="enable-background:new 0 0 512 512;" xml:space="preserve">
<g>
	<g>
		<g>
			<rect x="210.286" y="173.714" width="91.429" height="155.429"/>
			<path d="M182.857,155.429h146.286c5.049,0,9.143-4.093,9.143-9.143c0-5.049-4.093-9.143-9.143-9.143H182.857
				c-5.049,0-9.143,4.093-9.143,9.143C173.714,151.335,177.808,155.429,182.857,155.429z"/>
			<path d="M270.903,28.8c2.213-3.058,3.398-6.74,3.383-10.514C274.256,8.199,266.087,0.029,256,0
				c-10.087,0.029-18.256,8.199-18.286,18.286c-0.015,3.775,1.169,7.457,3.383,10.514C250.948,26.972,261.052,26.972,270.903,28.8z"
				/>
			<path d="M402.286,457.143H109.714c-5.043,0.015-9.128,4.1-9.143,9.143v36.571c0.015,5.043,4.1,9.128,9.143,9.143h9.143v-18.286
				c0-5.049,4.093-9.143,9.143-9.143c5.049,0,9.143,4.093,9.143,9.143V512h18.286v-18.286c0-5.049,4.093-9.143,9.143-9.143
				c5.049,0,9.143,4.093,9.143,9.143V512H192v-18.286c0-5.049,4.093-9.143,9.143-9.143c5.049,0,9.143,4.093,9.143,9.143V512h18.286
				v-18.286c0-5.049,4.093-9.143,9.143-9.143s9.143,4.093,9.143,9.143V512h18.286v-18.286c0-5.049,4.093-9.143,9.143-9.143
				c5.049,0,9.143,4.093,9.143,9.143V512h18.286v-18.286c0-5.049,4.093-9.143,9.143-9.143c5.049,0,9.143,4.093,9.143,9.143V512
				h18.286v-18.286c0-5.049,4.093-9.143,9.143-9.143s9.143,4.093,9.143,9.143V512h18.286v-18.286c0-5.049,4.093-9.143,9.143-9.143
				s9.143,4.093,9.143,9.143V512h9.143c5.043-0.015,9.128-4.1,9.143-9.143v-36.571C411.414,461.242,407.329,457.158,402.286,457.143
				z"/>
			<path d="M182.857,365.714h146.286c5.049,0,9.143-4.093,9.143-9.143c0-5.049-4.093-9.143-9.143-9.143H182.857
				c-5.049,0-9.143,4.093-9.143,9.143C173.714,361.621,177.808,365.714,182.857,365.714z"/>
			<path d="M134.217,438.857h243.566l5.577-13.897c1.817-4.562,1.751-9.658-0.183-14.171c-1.965-4.534-5.697-8.067-10.331-9.783
				L327.497,384H184.503l-45.349,17.006c-4.634,1.715-8.366,5.249-10.331,9.783c-1.934,4.513-2,9.61-0.183,14.171L134.217,438.857z"
				/>
			<path d="M207.634,118.857h96.64l12.16-36.571h0.091l11.246-33.646c1.045-3.103,0.356-6.528-1.809-8.985s-5.476-3.572-8.686-2.926
				c-3.21,0.646-5.831,2.956-6.877,6.059l-6.857,20.663c-27.284-23.649-67.802-23.649-95.086,0L201.6,42.789
				c-1.045-3.103-3.667-5.413-6.877-6.059c-3.21-0.646-6.521,0.469-8.686,2.926c-2.165,2.457-2.854,5.882-1.809,8.985
				L207.634,118.857z"/>
		</g>
	</g>
</g>
<g>
</g>
<g>
</g>
<g>
</g>
<g>
</g>
<g>
</g>
<g>
</g>
<g>
</g>
<g>
</g>
<g>
</g>
<g>
</g>
<g>
</g>
<g>
</g>
<g>
</g>
<g>
</g>
<g>
</g>
</svg>

<svg width="512" height="512" viewBox="0 0 512 512" fill="none" xmlns="http://www.w3.org/2000/svg">
<path d="M301.715 173.714H210.286V329.143H301.715V173.714Z" fill="white"/>
<path d="M182.857 155.429H329.143C334.192 155.429 338.286 151.336 338.286 146.286C338.286 141.237 334.193 137.143 329.143 137.143H182.857C177.808 137.143 173.714 141.236 173.714 146.286C173.714 151.335 177.808 155.429 182.857 155.429Z" fill="white"/>
<path d="M270.903 28.8C273.116 25.742 274.301 22.06 274.286 18.286C274.256 8.199 266.087 0.029 256 0C245.913 0.029 237.744 8.199 237.714 18.286C237.699 22.061 238.883 25.743 241.097 28.8C250.948 26.972 261.052 26.972 270.903 28.8Z" fill="white"/>
<path d="M402.286 457.143H109.714C104.671 457.158 100.586 461.243 100.571 466.286V502.857C100.586 507.9 104.671 511.985 109.714 512H118.857V493.714C118.857 488.665 122.95 484.571 128 484.571C133.049 484.571 137.143 488.664 137.143 493.714V512H155.429V493.714C155.429 488.665 159.522 484.571 164.572 484.571C169.621 484.571 173.715 488.664 173.715 493.714V512H192V493.714C192 488.665 196.093 484.571 201.143 484.571C206.192 484.571 210.286 488.664 210.286 493.714V512H228.572V493.714C228.572 488.665 232.665 484.571 237.715 484.571C242.765 484.571 246.858 488.664 246.858 493.714V512H265.144V493.714C265.144 488.665 269.237 484.571 274.287 484.571C279.336 484.571 283.43 488.664 283.43 493.714V512H301.716V493.714C301.716 488.665 305.809 484.571 310.859 484.571C315.908 484.571 320.002 488.664 320.002 493.714V512H338.288V493.714C338.288 488.665 342.381 484.571 347.431 484.571C352.481 484.571 356.574 488.664 356.574 493.714V512H374.86V493.714C374.86 488.665 378.953 484.571 384.003 484.571C389.053 484.571 393.146 488.664 393.146 493.714V512H402.289C407.332 511.985 411.417 507.9 411.432 502.857V466.286C411.414 461.242 407.329 457.158 402.286 457.143Z" fill="white"/>
<path d="M182.857 365.714H329.143C334.192 365.714 338.286 361.621 338.286 356.571C338.286 351.522 334.193 347.428 329.143 347.428H182.857C177.808 347.428 173.714 351.521 173.714 356.571C173.714 361.621 177.808 365.714 182.857 365.714Z" fill="white"/>
<path d="M134.217 438.857H377.783L383.36 424.96C385.177 420.398 385.111 415.302 383.177 410.789C381.212 406.255 377.48 402.722 372.846 401.006L327.497 384H184.503L139.154 401.006C134.52 402.721 130.788 406.255 128.823 410.789C126.889 415.302 126.823 420.399 128.64 424.96L134.217 438.857Z" fill="white"/>
<path d="M207.634 118.857H304.274L316.434 82.286H316.525L327.771 48.64C328.816 45.537 328.127 42.112 325.962 39.655C323.797 37.198 320.486 36.083 317.276 36.729C314.066 37.375 311.445 39.685 310.399 42.788L303.542 63.451C276.258 39.802 235.74 39.802 208.456 63.451L201.6 42.789C200.555 39.686 197.933 37.376 194.723 36.73C191.513 36.084 188.202 37.199 186.037 39.656C183.872 42.113 183.183 45.538 184.228 48.641L207.634 118.857Z" fill="white"/>
</svg>
